Obsidian-SemiLight/actions/16s/zoom-fit-height.svg

<svg viewBox="0 0 16 16" xmlns="http://www.w3.org/2000/svg"><path d="m2 2v1 2h1v-2h2v-1zm6 0-2 2h4zm3 0v1h2v2h1v-2-1zm-6 3v6h6v-6zm1 1h4v4h-4zm-4 5v3h1 2v-1h-2v-2zm11 0v2h-2v1h3v-1-2zm-7 1 2 2 2-2z" fill="#4d4d4d"/></svg>

<svg xmlns="http://www.w3.org/2000/svg" viewBox="0 0 16 16">
  <defs id="defs3051">
    <style type="text/css" id="current-color-scheme">
      .ColorScheme-Text {
        color:#4d4d4d;
      }
      </style>
  </defs>
 <path style="fill:currentColor;fill-opacity:1;stroke:none" 
       d="M 2 2 L 2 3 L 2 5 L 3 5 L 3 3 L 5 3 L 5 2 L 2 2 z M 8 2 L 6 4 L 10 4 L 8 2 z M 11 2 L 11 3 L 13 3 L 13 5 L 14 5 L 14 3 L 14 2 L 11 2 z M 5 5 L 5 11 L 11 11 L 11 5 L 5 5 z M 6 6 L 10 6 L 10 10 L 6 10 L 6 6 z M 2 11 L 2 14 L 3 14 L 5 14 L 5 13 L 3 13 L 3 11 L 2 11 z M 13 11 L 13 13 L 11 13 L 11 14 L 14 14 L 14 13 L 14 11 L 13 11 z M 6 12 L 8 14 L 10 12 L 6 12 z "
     class="ColorScheme-Text"
     />
</svg>
